X: 111590
T: Knocknaboul [b]
T: Polca Chnoc na bPoll (1)
S: B.Breathnach:"Ceol Rince na hEireann" III/62 
Z: B.Black
L: 1/8
M: 2/4
Q: 275
R: polka
K: G
D|GG/F/ GA|Bd d2|dB B/A/G/A/|BA A/B/c/A/|
GG/F/ GA|Bd d2|dB AB/A/|1 G2 G :|2 G2 GG/F/ ||
Gg g2|fe e/f/g/e/|dB B/A/G/A/|BA A/B/B/A/|
Gg gg|fe e/f/g/e/|dB AB/A/|1 G2 B/c/B/A/ :|2\ 
G2 GB/d/||
gg aa|bb ba|g>g aa|ab bb/a/|
ga e/f/g/e/|dB g>e|dB AB/A/|G2 G2 :|
